svgs/sharp-regular/book-arrow-right.svg

<svg xmlns="http://www.w3.org/2000/svg" viewBox="0 0 640 512"><!--! Font Awesome Pro 6.6.0 by @fontawesome - https://fontawesome.com License - https://fontawesome.com/license (Commercial License) Copyright 2024 Fonticons, Inc. --><path d="M88 0C39.4 0 0 39.4 0 88L0 424l.4 0c-.3 2.6-.4 5.3-.4 8c0 44.2 35.8 80 80 80l344 0 24 0 0-48-24 0-8 0 0-64 8 0 24 0 0-24 0-88-48 0 0 64L80 352c-11.4 0-22.2 2.4-32 6.7L48 88c0-22.1 17.9-40 40-40l312 0 0 80 48 0 0-104 0-24L424 0 88 0zM368 400l0 64L80 464c-17.7 0-32-14.3-32-32s14.3-32 32-32l288 0zM537 111l-17-17L486.1 128l17 17 39 39L256 184l0 48 286.1 0-39 39-17 17L520 321.9l17-17 80-80 17-17-17-17-80-80z"/></svg>

<svg xmlns="http://www.w3.org/2000/svg" viewBox="0 0 640 512"><!--! Font Awesome Pro 6.4.2 by @fontawesome - https://fontawesome.com License - https://fontawesome.com/license (Commercial License) Copyright 2023 Fonticons, Inc. --><path d="M88 0C39.4 0 0 39.4 0 88V424H.4c-.3 2.6-.4 5.3-.4 8c0 44.2 35.8 80 80 80H424h24V464H424h-8V400h8 24V376 288H400v64H80c-11.4 0-22.2 2.4-32 6.7V88c0-22.1 17.9-40 40-40H400v80h48V24 0H424 88zM368 400v64H80c-17.7 0-32-14.3-32-32s14.3-32 32-32H368zM537 111l-17-17L486.1 128l17 17 39 39H256v48H542.1l-39 39-17 17L520 321.9l17-17 80-80 17-17-17-17-80-80z"/></svg>
